dist/img/sprites/icon-tg-2.svg

<svg width="18" height="15" viewBox="0 0 18 15" fill="none" xmlns="http://www.w3.org/2000/svg">
<path d="M1.23678 6.45861C6.06821 4.34034 9.29152 2.94472 10.9039 2.27034C15.508 0.346578 16.4638 0.011517 17.0865 0.000158985C17.2234 -0.00268052 17.5298 0.0313931 17.7289 0.193245C17.8955 0.33096 17.9421 0.515528 17.9647 0.646145C17.9872 0.773923 18.0127 1.07065 17.9929 1.30065C17.7444 3.93571 16.6657 10.3331 16.1151 13.2833C15.8836 14.5327 15.4275 14.9516 14.9814 14.9927C14.0199 15.0808 13.2885 14.3524 12.3567 13.7391C10.8982 12.7765 10.0737 12.1774 8.65759 11.2389C7.02123 10.1556 8.08154 9.55934 9.01338 8.58397C9.25764 8.33126 13.4989 4.4525 13.5822 4.09898C13.5921 4.05497 13.602 3.89028 13.5031 3.80367C13.4071 3.71707 13.2631 3.74688 13.1615 3.77102C13.0146 3.80367 10.6836 5.35404 6.16846 8.41786C5.50629 8.8736 4.90765 9.09792 4.37114 9.08657C3.78098 9.07379 2.6416 8.75008 1.7973 8.47323C0.758158 8.13249 -0.0663755 7.95502 0.00421818 7.3786C0.0409269 7.0762 0.451783 6.76953 1.23678 6.45861Z" fill="white"/>
</svg>

<svg width="18" height="15" viewBox="0 0 18 15" fill="none" xmlns="http://www.w3.org/2000/svg"><path d="M1.237 6.459C6.068 4.34 9.292 2.945 10.904 2.27 15.508.347 16.464.012 17.087 0c.136-.003.443.031.642.193a.714.714 0 01.236.453c.022.128.048.425.028.655-.249 2.635-1.327 9.032-1.878 11.982-.231 1.25-.687 1.669-1.134 1.71-.961.088-1.692-.64-2.624-1.254-1.459-.963-2.283-1.562-3.7-2.5-1.636-1.083-.575-1.68.356-2.655.245-.253 4.486-4.131 4.57-4.485.01-.044.019-.209-.08-.295-.096-.087-.24-.057-.341-.033-.147.033-2.478 1.583-6.994 4.647-.662.456-1.26.68-1.797.669-.59-.013-1.73-.337-2.574-.614C.758 8.133-.066 7.955.004 7.38c.037-.303.448-.61 1.233-.92z" fill="#fff"/></svg>
